!!! OTL: Berkowitz453
!!! Chapter: 1
!!! Section: IV
!!! Page: 113
!!! Mode: 
!!! Encoder: DJB
**kern
*staff1
*I"Piano
=1-
*clefC3
*k[f#c#g#d#]
*c#:
*M6/8
8c#\L
16B#\L
16d#\
16f#\
16a\JJ
8.g#\L
16e\K
8c#\J
=2
8A\L
8G#\
8f#\J
4.e\
=3
8e\L
16d#\L
16f#\
16a\
16ccn\JJ
8.b\L
16g#\K
8e\J
=4
8.c#\L
16B\L
16.g#\
32f#\JJk
4e\
8e\
=5
8.e#\L
16g#\L
16b\
16ddn\JJ
8cc#\L
8a\
16f#\L
16en\JJ
=6
!!linebreak:original
8.d#\L
16f#\L
16a\
16ccn\JJ
4b\
8a\
=7
8.g#\L
16a\L
16g#\
16f#\JJ
8e\L
8d#\
8c#\J
=8
8.a\L
16B#\K
8d#\J
4.c#\
==
*-
